images_elementary_svg/cmd/ca/lc_underline.svg

<svg height="24" width="24" xmlns="http://www.w3.org/2000/svg" xmlns:xlink="http://www.w3.org/1999/xlink"><radialGradient id="a" cx="10.779233" cy="4.333702" gradientTransform="matrix(-1.8645699 -.06934735 .09819771 -2.8633173 30.452306 13.156274)" gradientUnits="userSpaceOnUse" r="4.989573" xlink:href="#b"/><linearGradient id="b"><stop offset="0" stop-color="#555"/><stop offset="1" stop-color="#666"/></linearGradient><linearGradient id="c" gradientUnits="userSpaceOnUse" x1="13" x2="13" xlink:href="#b" y1="25" y2="3"/><linearGradient id="d"><stop offset="0"/><stop offset="1" stop-opacity="0"/></linearGradient><radialGradient id="e" cx="40" cy="43.5" gradientTransform="matrix(1 0 0 .75 -20 -9.125)" gradientUnits="userSpaceOnUse" r="2" xlink:href="#d"/><radialGradient id="f" cx="9" cy="43.5" gradientTransform="matrix(1 0 0 .75 -6 -9.125)" gradientUnits="userSpaceOnUse" r="2" xlink:href="#d"/><linearGradient id="g" gradientUnits="userSpaceOnUse" x1="14" x2="14" y1="25" y2="22"><stop offset="0" stop-opacity="0"/><stop offset=".5"/><stop offset="1" stop-opacity="0"/></linearGradient><path d="m20 22v3h.5c.831 0 1.5-.669 1.5-1.5s-.669-1.5-1.5-1.5z" fill="url(#e)" opacity=".2"/><path d="m2.40625 22c-.7790625 0-1.40625.627187-1.40625 1.40625v.1875c0 .779063.6271875 1.40625 1.40625 1.40625h.59375v-3z" fill="url(#f)" opacity=".2"/><path d="m3 22h17v3h-17z" fill="url(#g)" opacity=".2"/><path d="m2.5 21.5v2h19v-2z" fill="url(#c)"/><path d="m2.5 21.5v2h19v-2z" fill="none" opacity=".61" stroke="#000"/><path d="m3 22v1h18v-1z" fill="#fff" opacity=".2"/><path d="m16.748736 14.137539q0 1.119049-.40378 2.007366-.392244.876781-1.130586 1.48822-.738341.611439-1.799707.934463-1.061366.311488-2.388073.311488-1.2805611 0-2.3996098-.207659-1.1075122-.196122-1.8573902-.588366v-2.053512q.3922439.184586.888317.369171.5076098.173049 1.0613659.311488.5537561.138439 1.1421219.230731.5883662.08076 1.1651952.08076 1.845854 0 2.722634-.692196.888317-.692195.888317-1.984292 0-.622976-.173049-1.084439-.161512-.461467-.588366-.842174-.415317-.392244-1.119048-.749878-.703732-.369171-1.776634-.796024-1.0267565-.403781-1.7881711-.8767808-.7498781-.4845366-1.2459512-1.084439-.4845366-.5999025-.7268049-1.3613171-.2307317-.7614146-.2307317-1.7304878 0-1.0152195.3691707-1.8112438.3691707-.7960244 1.0382927-1.3382439.6691219-.5537561 1.5920487-.8421707.9344638-.2884147 2.0535118-.2884147 1.372854 0 2.46883.2653415 1.095975.2538049 1.949683.6575854l-.772952 1.7997072q-.749878-.3345609-1.707414-.5768292-.946-.2538049-1.96122-.2538049-1.407463 0-2.1804144.6575854-.7729512.6460487-.7729512 1.7535609 0 .6575854.1730488 1.1421219.1730488.473.5768293.8652439.4037805.3807073 1.0613655.7268049.669122.334561 1.638195.7152683 1.04983.415317 1.834317.8537075.796025.43839 1.326708.992146.530683.553756.796024 1.280561.276878.726805.276878 1.718951z" fill="url(#a)" stroke="#000" stroke-opacity=".6" transform="scale(1.0204808 .97993027)"/><path d="m12.289062 1.5078125c-.761311 0-1.459968.0947856-2.095703.2832031-.6278857.1884175-1.1697822.4644103-1.6249996.8261719-.4552174.3542249-.8093925.7905146-1.0605469 1.3105469-.2511544.5200322-.375 1.1121611-.375 1.7753906 0 .318021.0189831.6185557.0585937.9023438.0544125-.4217108.144963-.8227495.3164063-1.1777344.2511544-.5200323.6053295-.956322 1.0605469-1.3105469.4552174-.3617616.9971139-.6377544 1.6249996-.8261719.635735-.1884175 1.334392-.2832031 2.095703-.2832031.933981 0 1.773917.0883747 2.519532.2617187.516621.1148847.978521.2619064 1.416015.4238282l.572266-1.2792969c-.580795-.2637845-1.242667-.4787239-1.988281-.6445313-.745615-.173344-1.585551-.2617187-2.519532-.2617187zm-2.9374995 5.0429687c-.059905.20986-.0996094.4296252-.0996094.6738282 0 .4295918.0580526.8025992.1757813 1.1191406.1177286.3090047.3131904.5933616.5878906.8496094.2747.2487111.636616.4848365 1.083984.7109375.455218.2185641 1.012595.4524611 1.671875.7011721.714221.271321 1.337391.549543 1.871094.835937.541552.286395.992481.610895 1.353516.972656.361034.361762.631983.781048.8125 1.25586.110216.277821.178882.594472.224609.93164.034665-.240677.058594-.488347.058594-.748046 0-.648157-.094837-1.208782-.283203-1.683594-.180517-.474812-.451466-.894098-.8125-1.25586-.361035-.361761-.811964-.686261-1.353516-.9726558-.533703-.2863945-1.156873-.5646163-1.871094-.8359374-.65928-.2487111-1.216657-.4826076-1.671875-.7011719-.447368-.226101-.809284-.4622264-1.083984-.7109375-.2747002-.2562478-.470162-.5406047-.5878906-.8496094-.0334652-.0899792-.0522194-.1938548-.0761719-.2929688zm5.4863285 8.2343748c-.129903.495849-.391327.906035-.806641 1.216797-.596492.452202-1.523525.677735-2.779297.677735-.392429 0-.789176-.025369-1.189453-.078126-.4002774-.060293-.7873309-.136122-1.1640625-.226562s-.738647-.191637-1.0839844-.304688c-.3374887-.120587-.6393984-.242694-.90625-.363281v1.5c.2668516.120587.5687613.242694.90625.363281.3453374.113051.7072528.214248 1.0839844.304688s.7637851.166269 1.1640625.226562c.400277.052757.797024.078126 1.189453.078126 1.255772 0 2.182805-.225533 2.779297-.677735.60434-.452202.90625-1.101202.90625-1.945312 0-.286706-.041184-.537143-.099609-.771485z" fill="#fff" opacity=".2"/></svg>

<?xml version="1.0" encoding="UTF-8" standalone="no"?>
<svg
   xmlns:dc="http://purl.org/dc/elements/1.1/"
   xmlns:cc="http://creativecommons.org/ns#"
   xmlns:rdf="http://www.w3.org/1999/02/22-rdf-syntax-ns#"
   xmlns:svg="http://www.w3.org/2000/svg"
   xmlns="http://www.w3.org/2000/svg"
   xmlns:xlink="http://www.w3.org/1999/xlink"
   xmlns:sodipodi="http://sodipodi.sourceforge.net/DTD/sodipodi-0.dtd"
   xmlns:inkscape="http://www.inkscape.org/namespaces/inkscape"
   height="24"
   width="24"
   version="1.1"
   id="svg51"
   sodipodi:docname="lc_underline.svg"
   inkscape:version="0.92.4 (unknown)"
   inkscape:export-filename="/home/rizmut/Dokumen/Rizmut/Github/libreoffice-style-elementary/images_elementary/cmd/ca/lc_underline.png"
   inkscape:export-xdpi="96"
   inkscape:export-ydpi="96">
  <metadata
     id="metadata57">
    <rdf:RDF>
      <cc:Work
         rdf:about="">
        <dc:format>image/svg+xml</dc:format>
        <dc:type
           rdf:resource="http://purl.org/dc/dcmitype/StillImage" />
        <dc:title></dc:title>
      </cc:Work>
    </rdf:RDF>
  </metadata>
  <defs
     id="defs55">
    <radialGradient
       inkscape:collect="always"
       xlink:href="#a"
       id="radialGradient876"
       cx="10.779233"
       cy="4.3337016"
       fx="10.779233"
       fy="4.3337016"
       r="4.989573"
       gradientTransform="matrix(-1.8645699,-0.06934735,0.09819771,-2.8633173,30.452306,13.156274)"
       gradientUnits="userSpaceOnUse" />
  </defs>
  <sodipodi:namedview
     pagecolor="#ffffff"
     bordercolor="#666666"
     borderopacity="1"
     objecttolerance="10"
     gridtolerance="10"
     guidetolerance="10"
     inkscape:pageopacity="0"
     inkscape:pageshadow="2"
     inkscape:window-width="1366"
     inkscape:window-height="714"
     id="namedview53"
     showgrid="true"
     inkscape:zoom="16"
     inkscape:cx="5.6503455"
     inkscape:cy="12.856536"
     inkscape:window-x="0"
     inkscape:window-y="28"
     inkscape:window-maximized="1"
     inkscape:current-layer="svg51"
     inkscape:snap-global="false">
    <inkscape:grid
       type="xygrid"
       id="grid864" />
  </sodipodi:namedview>
  <linearGradient
     id="a">
    <stop
       offset="0"
       stop-color="#555"
       id="stop2" />
    <stop
       offset="1"
       stop-color="#666"
       id="stop4" />
  </linearGradient>
  <linearGradient
     id="b"
     gradientUnits="userSpaceOnUse"
     x1="13"
     x2="13"
     xlink:href="#a"
     y1="25"
     y2="3" />
  <linearGradient
     id="c">
    <stop
       offset="0"
       id="stop8" />
    <stop
       offset="1"
       stop-opacity="0"
       id="stop10" />
  </linearGradient>
  <linearGradient
     id="d">
    <stop
       offset="0"
       stop-opacity="0"
       id="stop13" />
    <stop
       offset=".5"
       id="stop15" />
    <stop
       offset="1"
       stop-opacity="0"
       id="stop17" />
  </linearGradient>
  <radialGradient
     id="e"
     cx="40"
     cy="43.5"
     gradientTransform="matrix(.87733142 0 0 .75 -17.142285 -11.625)"
     gradientUnits="userSpaceOnUse"
     r="2"
     xlink:href="#c" />
  <radialGradient
     id="f"
     cx="9"
     cy="43.5"
     gradientTransform="matrix(.87733142 0 0 .75 -1.350319 -11.625)"
     gradientUnits="userSpaceOnUse"
     r="2"
     xlink:href="#c" />
  <linearGradient
     id="g"
     gradientTransform="matrix(.87733142 0 0 1 -5.736976 -22.5)"
     gradientUnits="userSpaceOnUse"
     x1="25"
     x2="25"
     xlink:href="#d"
     y1="45"
     y2="42" />
  <radialGradient
     id="h"
     cx="40"
     cy="43.5"
     gradientTransform="matrix(1 0 0 .75 -20 -9.125)"
     gradientUnits="userSpaceOnUse"
     r="2"
     xlink:href="#c" />
  <radialGradient
     id="i"
     cx="9"
     cy="43.5"
     gradientTransform="matrix(1 0 0 .75 -6 -9.125)"
     gradientUnits="userSpaceOnUse"
     r="2"
     xlink:href="#c" />
  <linearGradient
     id="j"
     gradientUnits="userSpaceOnUse"
     x1="14"
     x2="14"
     xlink:href="#d"
     y1="25"
     y2="22" />
  <linearGradient
     id="k"
     gradientUnits="userSpaceOnUse"
     x1="12.046913"
     x2="11.445407"
     xlink:href="#a"
     y1="25.559875"
     y2="4.349593" />
  <path
     d="m20 22v3h.5c.831 0 1.5-.669 1.5-1.5s-.669-1.5-1.5-1.5z"
     fill="url(#h)"
     opacity=".2"
     id="path29" />
  <path
     d="m2.40625 22c-.7790625 0-1.40625.627187-1.40625 1.40625v.1875c0 .779063.6271875 1.40625 1.40625 1.40625h.59375v-3z"
     fill="url(#i)"
     opacity=".2"
     id="path31" />
  <path
     d="m3 22h17v3h-17z"
     fill="url(#j)"
     opacity=".2"
     id="path33" />
  <path
     d="m2.5 21.5v2h19v-2z"
     fill="url(#b)"
     id="path35" />
  <path
     d="m2.5 21.5v2h19v-2z"
     fill="none"
     opacity=".61"
     stroke="#000"
     id="path37" />
  <path
     d="m3 22v1h18v-1z"
     fill="#fff"
     opacity=".2"
     id="path39" />
  <text
     xml:space="preserve"
     style="font-style:normal;font-weight:normal;font-size:23.62692642px;line-height:1.25;font-family:sans-serif;letter-spacing:0px;word-spacing:0px;fill:url(#radialGradient876);fill-opacity:1;stroke:#000000;stroke-width:0.99999999;stroke-opacity:0.60000002;stroke-miterlimit:4;stroke-dasharray:none"
     x="5.5697851"
     y="18.648344"
     id="text868"
     transform="scale(1.0204808,0.97993027)"><tspan
       sodipodi:role="line"
       id="tspan866"
       x="5.5697851"
       y="18.648344"
       style="font-style:normal;font-variant:normal;font-weight:normal;font-stretch:normal;font-family:'Droid Sans';-inkscape-font-specification:'Droid Sans';stroke-width:0.99999999;fill-opacity:1;fill:url(#radialGradient876);stroke:#000000;stroke-opacity:0.60000002;stroke-miterlimit:4;stroke-dasharray:none">S</tspan></text>
  <path
     style="font-style:normal;font-weight:normal;font-size:23.62692642px;line-height:1.25;font-family:sans-serif;letter-spacing:0px;word-spacing:0px;fill:#ffffff;fill-opacity:1;stroke:none;stroke-width:0.59067315;stroke-opacity:0.57751936;opacity:0.2"
     d="M 12.289062 1.5078125 C 11.527751 1.5078125 10.829094 1.6025981 10.193359 1.7910156 C 9.5654733 1.9794331 9.0235768 2.2554259 8.5683594 2.6171875 C 8.113142 2.9714124 7.7589669 3.4077021 7.5078125 3.9277344 C 7.2566581 4.4477666 7.1328125 5.0398955 7.1328125 5.703125 C 7.1328125 6.021146 7.1517956 6.3216807 7.1914062 6.6054688 C 7.2458187 6.183758 7.3363692 5.7827193 7.5078125 5.4277344 C 7.7589669 4.9077021 8.113142 4.4714124 8.5683594 4.1171875 C 9.0235768 3.7554259 9.5654733 3.4794331 10.193359 3.2910156 C 10.829094 3.1025981 11.527751 3.0078125 12.289062 3.0078125 C 13.223043 3.0078125 14.062979 3.0961872 14.808594 3.2695312 C 15.325215 3.3844159 15.787115 3.5314376 16.224609 3.6933594 L 16.796875 2.4140625 C 16.21608 2.150278 15.554208 1.9353386 14.808594 1.7695312 C 14.062979 1.5961872 13.223043 1.5078125 12.289062 1.5078125 z M 9.3515625 6.5507812 C 9.2916575 6.7606412 9.2519531 6.9804064 9.2519531 7.2246094 C 9.2519531 7.6542012 9.3100057 8.0272086 9.4277344 8.34375 C 9.545463 8.6527547 9.7409248 8.9371116 10.015625 9.1933594 C 10.290325 9.4420705 10.652241 9.6781959 11.099609 9.9042969 C 11.554827 10.122861 12.112204 10.356758 12.771484 10.605469 C 13.485705 10.87679 14.108875 11.155012 14.642578 11.441406 C 15.18413 11.727801 15.635059 12.052301 15.996094 12.414062 C 16.357128 12.775824 16.628077 13.19511 16.808594 13.669922 C 16.91881 13.947743 16.987476 14.264394 17.033203 14.601562 C 17.067868 14.360885 17.091797 14.113215 17.091797 13.853516 C 17.091797 13.205359 16.99696 12.644734 16.808594 12.169922 C 16.628077 11.69511 16.357128 11.275824 15.996094 10.914062 C 15.635059 10.552301 15.18413 10.227801 14.642578 9.9414062 C 14.108875 9.6550117 13.485705 9.3767899 12.771484 9.1054688 C 12.112204 8.8567577 11.554827 8.6228612 11.099609 8.4042969 C 10.652241 8.1781959 10.290325 7.9420705 10.015625 7.6933594 C 9.7409248 7.4371116 9.545463 7.1527547 9.4277344 6.84375 C 9.3942692 6.7537708 9.375515 6.6498952 9.3515625 6.5507812 z M 14.837891 14.785156 C 14.707988 15.281005 14.446564 15.691191 14.03125 16.001953 C 13.434758 16.454155 12.507725 16.679688 11.251953 16.679688 C 10.859524 16.679688 10.462777 16.654319 10.0625 16.601562 C 9.6622226 16.541269 9.2751691 16.46544 8.8984375 16.375 C 8.5217059 16.28456 8.1597905 16.183363 7.8144531 16.070312 C 7.4769644 15.949725 7.1750547 15.827618 6.9082031 15.707031 L 6.9082031 17.207031 C 7.1750547 17.327618 7.4769644 17.449725 7.8144531 17.570312 C 8.1597905 17.683363 8.5217059 17.78456 8.8984375 17.875 C 9.2751691 17.96544 9.6622226 18.041269 10.0625 18.101562 C 10.462777 18.154319 10.859524 18.179688 11.251953 18.179688 C 12.507725 18.179688 13.434758 17.954155 14.03125 17.501953 C 14.63559 17.049751 14.9375 16.400751 14.9375 15.556641 C 14.9375 15.269935 14.896316 15.019498 14.837891 14.785156 z "
     id="text880" />
</svg>
